src/assets/outline/ArchiveBook.svg

<?xml version="1.0" encoding="UTF-8"?>
<svg width="24" height="24" viewBox="0 0 24 24" xmlns="http://www.w3.org/2000/svg">
 <path d="m16 22.75h-8c-3.65 0-5.75-2.1-5.75-5.75v-10c0-3.65 2.1-5.75 5.75-5.75h8c3.65 0 5.75 2.1 5.75 5.75v10c0 3.65-2.1 5.75-5.75 5.75zm-8-20c-2.86 0-4.25 1.39-4.25 4.25v10c0 2.86 1.39 4.25 4.25 4.25h8c2.86 0 4.25-1.39 4.25-4.25v-10c0-2.86-1.39-4.25-4.25-4.25h-8z"/>
 <path d="m9 11.11c-0.17 0-0.34-0.03-0.5-0.1-0.46-0.2-0.75-0.65-0.75-1.14v-7.87c0-0.41 0.34-0.75 0.75-0.75h7c0.41 0 0.75 0.34 0.75 0.75v7.86c0 0.50001-0.29 0.95001-0.75 1.14-0.45 0.2-0.98 0.11-1.35-0.23l-2.15-1.97-2.15 1.98c-0.24 0.22-0.53998 0.33-0.84998 0.33zm3-3.9c0.3 0 0.61 0.10996 0.85 0.32996l1.9 1.75v-6.54h-5.5v6.54l1.9-1.75c0.24-0.22 0.55-0.32996 0.85-0.32996z"/>
 <path d="m17.5 14.75h-4.25c-0.41 0-0.75-0.34-0.75-0.75s0.34-0.75 0.75-0.75h4.25c0.41 0 0.75 0.34 0.75 0.75s-0.34 0.75-0.75 0.75z"/>
 <path d="m17.5 18.75h-8.5c-0.41 0-0.75-0.34-0.75-0.75s0.34-0.75 0.75-0.75h8.5c0.41 0 0.75 0.34 0.75 0.75s-0.34 0.75-0.75 0.75z"/>
</svg>

<svg width="24" height="24" viewBox="0 0 24 24"  xmlns="http://www.w3.org/2000/svg">
<path d="M16 22.75H8C4.35 22.75 2.25 20.65 2.25 17V7C2.25 3.35 4.35 1.25 8 1.25H16C19.65 1.25 21.75 3.35 21.75 7V17C21.75 20.65 19.65 22.75 16 22.75ZM8 2.75C5.14 2.75 3.75 4.14 3.75 7V17C3.75 19.86 5.14 21.25 8 21.25H16C18.86 21.25 20.25 19.86 20.25 17V7C20.25 4.14 18.86 2.75 16 2.75H8Z" />
<path d="M9 11.11C8.83 11.11 8.66 11.08 8.5 11.01C8.04 10.81 7.75 10.36 7.75 9.87V2C7.75 1.59 8.09 1.25 8.5 1.25H15.5C15.91 1.25 16.25 1.59 16.25 2V9.85999C16.25 10.36 15.96 10.81 15.5 11C15.05 11.2 14.52 11.11 14.15 10.77L12 8.79999L9.84998 10.78C9.60998 11 9.31 11.11 9 11.11ZM12 7.21002C12.3 7.21002 12.61 7.31998 12.85 7.53998L14.75 9.28998V2.75H9.25V9.28998L11.15 7.53998C11.39 7.31998 11.7 7.21002 12 7.21002Z" />
<path d="M17.5 14.75H13.25C12.84 14.75 12.5 14.41 12.5 14C12.5 13.59 12.84 13.25 13.25 13.25H17.5C17.91 13.25 18.25 13.59 18.25 14C18.25 14.41 17.91 14.75 17.5 14.75Z" />
<path d="M17.5 18.75H9C8.59 18.75 8.25 18.41 8.25 18C8.25 17.59 8.59 17.25 9 17.25H17.5C17.91 17.25 18.25 17.59 18.25 18C18.25 18.41 17.91 18.75 17.5 18.75Z" />
</svg>
